X: 133
T: Trip to the Oakes
%R: march, reel
B: Chas & Sam Thompson "Twenty Four Country Dances for the Year 1778", London 1778, p.67 #1
F: http://www.vwml.org/browse/browse-collections-dance-tune-books/browse-thompsons1778#
Z: 2014 John Chambers <jc:trillian.mit.edu> (added dance description)
M: 2/4
L: 1/8
K: C
% - - - - - - - - - - - - - - - - - - - - - - - - - - - - -
|:\
c2ec | cBAG | defg | fedc |\
c2ec | cBAG | AcBd | c2c2 :|
|:\
G3 A | GFEF | GABc | defg |\
G3 A | GFEF | AcBd | c4 :|
% - - - - - - - - - - Dance description - - - - - - - - - -
%%begintext align
%% Cast off two Cu: .|. lead up to the top
%% and cast off :|. hands 4 at bottom .|:
%% Right and Left at top :|:
%%endtext

%%sep 1 1 500
%%sep 1 1 500
